X: 4274
M: C|
L: 1/8
K: A
|: A2A2 BdcB | A2A2 BdcB |\
[1 ABcd efga | bagf edcB :|\
[2 Acfe ^dBcd | e2g2e2 z2 |:\
f2ff f2f2 |
fedc BcdB |\
e2ee e2e2 | edcB Acde |\
f2f2 egfe | d2d2 cedc |\


